swiss/communes/4751.svg

<?xml version="1.0" encoding="UTF-8" standalone="no"?>
<!-- Created with Inkscape (http://www.inkscape.org/) -->

<svg
   xmlns:dc="http://purl.org/dc/elements/1.1/"
   xmlns:cc="http://creativecommons.org/ns#"
   xmlns:rdf="http://www.w3.org/1999/02/22-rdf-syntax-ns#"
   xmlns:svg="http://www.w3.org/2000/svg"
   xmlns="http://www.w3.org/2000/svg"
   xmlns:xlink="http://www.w3.org/1999/xlink"
   xmlns:sodipodi="http://sodipodi.sourceforge.net/DTD/sodipodi-0.dtd"
   xmlns:inkscape="http://www.inkscape.org/namespaces/inkscape"
   version="1.0"
   width="208.86046"
   height="244.65999"
   id="svg2780"
   inkscape:version="0.92.3 (2405546, 2018-03-11)"
   sodipodi:docname="Rickenbach-blazon.svg">
  <metadata
     id="metadata27">
    <rdf:RDF>
      <cc:Work
         rdf:about="">
        <dc:format>image/svg+xml</dc:format>
        <dc:type
           rdf:resource="http://purl.org/dc/dcmitype/StillImage" />
        <dc:title></dc:title>
      </cc:Work>
    </rdf:RDF>
  </metadata>
  <sodipodi:namedview
     pagecolor="#ffffff"
     bordercolor="#666666"
     borderopacity="1"
     objecttolerance="10"
     gridtolerance="10"
     guidetolerance="10"
     inkscape:pageopacity="0"
     inkscape:pageshadow="2"
     inkscape:window-width="1804"
     inkscape:window-height="1251"
     id="namedview25"
     showgrid="false"
     inkscape:zoom="2.35"
     inkscape:cx="185.92527"
     inkscape:cy="173.83875"
     inkscape:window-x="33"
     inkscape:window-y="16"
     inkscape:window-maximized="0"
     inkscape:current-layer="svg2780"
     inkscape:measure-start="104.255,149.787"
     inkscape:measure-end="104.255,126.383"
     inkscape:object-paths="true"
     inkscape:snap-nodes="true" />
  <defs
     id="defs2782" />
  <path
     inkscape:connector-curvature="0"
     style="fill:#000000;fill-opacity:1;fill-rule:evenodd;stroke:#000000;stroke-width:1.99999988;stroke-linecap:butt;stroke-miterlimit:4;stroke-dashoffset:0;stroke-opacity:1"
     id="path4212"
     d="m 1,1 3.761095,158.00304 c 2.686489,112.85918 196.651755,112.85918 199.338255,0 L 207.86045,1 Z" />
  <g
     id="g6763"
     transform="translate(0,2)">
    <path
       sodipodi:nodetypes="ccccc"
       inkscape:connector-curvature="0"
       id="path6467"
       d="m 26.99234,194.21565 h 154.6562 c -5.87519,-5.87519 -4,-85.00326 -4,-85.00326 H 30.99234 c 0,0 1.7502,79.25306 -4,85.00326 z"
       style="fill:#feeb00;fill-opacity:1;fill-rule:evenodd;stroke:#000000;stroke-width:1px;stroke-linecap:butt;stroke-linejoin:miter;stroke-opacity:1" />
    <path
       sodipodi:nodetypes="cc"
       inkscape:tile-y0="54.192502"
       inkscape:tile-x0="30.49234"
       inkscape:tile-h="142.02315"
       inkscape:tile-w="1"
       inkscape:tile-cy="125.20408"
       inkscape:tile-cx="30.99234"
       inkscape:connector-curvature="0"
       id="path1468"
       d="M 40.769421,147.87275 V 52.192502"
       style="fill:none;fill-rule:evenodd;stroke:#000000;stroke-width:1px;stroke-linecap:butt;stroke-linejoin:miter;stroke-opacity:1" />
    <path
       sodipodi:nodetypes="cc"
       style="fill:none;fill-rule:evenodd;stroke:#000000;stroke-width:1px;stroke-linecap:butt;stroke-linejoin:miter;stroke-opacity:1"
       d="M 50.546502,194.21565 V 109.21239"
       id="use5201"
       inkscape:connector-curvature="0"
       inkscape:tile-x0="30.49234"
       inkscape:tile-y0="54.192502" />
    <path
       sodipodi:nodetypes="cc"
       style="fill:none;fill-rule:evenodd;stroke:#000000;stroke-width:1px;stroke-linecap:butt;stroke-linejoin:miter;stroke-opacity:1"
       d="M 60.323584,167.05413 V 109.21239"
       id="use5203"
       inkscape:connector-curvature="0"
       inkscape:tile-x0="30.49234"
       inkscape:tile-y0="54.192502" />
    <path
       sodipodi:nodetypes="cc"
       style="fill:none;fill-rule:evenodd;stroke:#000000;stroke-width:1px;stroke-linecap:butt;stroke-linejoin:miter;stroke-opacity:1"
       d="M 70.100661,157.77465 V 109.21239"
       id="use5205"
       inkscape:connector-curvature="0"
       inkscape:tile-x0="30.49234"
       inkscape:tile-y0="54.192502" />
    <path
       sodipodi:nodetypes="cc"
       style="fill:none;fill-rule:evenodd;stroke:#000000;stroke-width:1px;stroke-linecap:butt;stroke-linejoin:miter;stroke-opacity:1"
       d="M 79.877746,151.98161 V 52.192502"
       id="use5207"
       inkscape:connector-curvature="0"
       inkscape:tile-x0="30.49234"
       inkscape:tile-y0="54.192502" />
    <path
       sodipodi:nodetypes="cc"
       style="fill:none;fill-rule:evenodd;stroke:#000000;stroke-width:1px;stroke-linecap:butt;stroke-linejoin:miter;stroke-opacity:1"
       d="M 89.654824,148.76573 V 52.192502"
       id="use5209"
       inkscape:connector-curvature="0"
       inkscape:tile-x0="30.49234"
       inkscape:tile-y0="54.192502" />
    <path
       sodipodi:nodetypes="cc"
       style="fill:none;fill-rule:evenodd;stroke:#000000;stroke-width:1px;stroke-linecap:butt;stroke-linejoin:miter;stroke-opacity:1"
       d="M 99.431901,147.17052 V 109.21239"
       id="use5211"
       inkscape:connector-curvature="0"
       inkscape:tile-x0="30.49234"
       inkscape:tile-y0="54.192502" />
    <path
       sodipodi:nodetypes="cc"
       style="fill:none;fill-rule:evenodd;stroke:#000000;stroke-width:1px;stroke-linecap:butt;stroke-linejoin:miter;stroke-opacity:1"
       d="M 109.20899,147.17052 V 109.21239"
       id="use5213"
       inkscape:connector-curvature="0"
       inkscape:tile-x0="30.49234"
       inkscape:tile-y0="54.192502" />
    <path
       sodipodi:nodetypes="cc"
       style="fill:none;fill-rule:evenodd;stroke:#000000;stroke-width:1px;stroke-linecap:butt;stroke-linejoin:miter;stroke-opacity:1"
       d="M 118.98607,148.76574 V 52.192502"
       id="use5215"
       inkscape:connector-curvature="0"
       inkscape:tile-x0="30.49234"
       inkscape:tile-y0="54.192502" />
    <path
       sodipodi:nodetypes="cc"
       style="fill:none;fill-rule:evenodd;stroke:#000000;stroke-width:1px;stroke-linecap:butt;stroke-linejoin:miter;stroke-opacity:1"
       d="M 138.54022,157.77465 V 109.21239"
       id="use5219"
       inkscape:connector-curvature="0"
       inkscape:tile-x0="30.49234"
       inkscape:tile-y0="54.192502" />
    <path
       sodipodi:nodetypes="cc"
       style="fill:none;fill-rule:evenodd;stroke:#000000;stroke-width:1px;stroke-linecap:butt;stroke-linejoin:miter;stroke-opacity:1"
       d="M 148.3173,167.05413 V 109.21239"
       id="use5221"
       inkscape:connector-curvature="0"
       inkscape:tile-x0="30.49234"
       inkscape:tile-y0="54.192502" />
    <path
       sodipodi:nodetypes="cc"
       style="fill:none;fill-rule:evenodd;stroke:#000000;stroke-width:1px;stroke-linecap:butt;stroke-linejoin:miter;stroke-opacity:1"
       d="M 158.09439,194.21565 V 109.21239"
       id="use5223"
       inkscape:connector-curvature="0"
       inkscape:tile-x0="30.49234"
       inkscape:tile-y0="54.192502" />
    <path
       sodipodi:nodetypes="cc"
       style="fill:none;fill-rule:evenodd;stroke:#000000;stroke-width:1px;stroke-linecap:butt;stroke-linejoin:miter;stroke-opacity:1"
       d="M 167.87146,147.87275 V 52.192502"
       id="use5225"
       inkscape:connector-curvature="0"
       inkscape:tile-x0="30.49234"
       inkscape:tile-y0="54.192502" />
    <path
       d="m 50.546505,194.21565 a 53.773937,47.240749 0 0 1 53.773935,-47.24075 53.773937,47.240749 0 0 1 53.77394,47.24075"
       sodipodi:open="true"
       sodipodi:end="0"
       sodipodi:start="3.1415927"
       sodipodi:ry="47.240749"
       sodipodi:rx="53.773937"
       sodipodi:cy="194.21565"
       sodipodi:cx="104.32044"
       sodipodi:type="arc"
       id="path5229"
       style="fill:#000000;fill-opacity:1;stroke:#000000;stroke-width:1;stroke-miterlimit:4;stroke-dasharray:none;stroke-opacity:1" />
    <path
       sodipodi:nodetypes="cc"
       style="fill:none;fill-rule:evenodd;stroke:#000000;stroke-width:1px;stroke-linecap:butt;stroke-linejoin:miter;stroke-opacity:1"
       d="M 128.76316,152.13721 V 52.192502"
       id="use5217"
       inkscape:connector-curvature="0"
       inkscape:tile-x0="30.49234"
       inkscape:tile-y0="54.192502" />
    <path
       inkscape:connector-curvature="0"
       id="path5274"
       d="m 28.99234,104.39805 v 4.81434 h 150.6562 v -4.81434 z"
       style="fill:#feeb00;fill-opacity:1;fill-rule:evenodd;stroke:#000000;stroke-width:1px;stroke-linecap:butt;stroke-linejoin:miter;stroke-opacity:1" />
    <path
       inkscape:connector-curvature="0"
       id="path5276"
       d="M 89.654824,77.467808 H 118.98607"
       style="fill:none;fill-rule:evenodd;stroke:#000000;stroke-width:1px;stroke-linecap:butt;stroke-linejoin:miter;stroke-opacity:1" />
    <path
       inkscape:connector-curvature="0"
       id="path5278"
       d="M 118.98607,86.043359 H 89.654824"
       style="fill:none;fill-rule:evenodd;stroke:#000000;stroke-width:1px;stroke-linecap:butt;stroke-linejoin:miter;stroke-opacity:1" />
    <g
       transform="translate(0,-2)"
       style="stroke:#000000;stroke-opacity:1"
       id="g5286">
      <path
         style="fill:none;fill-rule:evenodd;stroke:#000000;stroke-width:1px;stroke-linecap:butt;stroke-linejoin:miter;stroke-opacity:1"
         d="m 128.76316,92.105461 14.29259,14.292589"
         id="path5280"
         inkscape:connector-curvature="0" />
      <path
         style="fill:none;fill-rule:evenodd;stroke:#000000;stroke-width:1px;stroke-linecap:butt;stroke-linejoin:miter;stroke-opacity:1"
         d="m 128.76316,81.122739 25.27531,25.275311"
         id="path5282"
         inkscape:connector-curvature="0" />
    </g>
    <g
       style="stroke:#000000;stroke-opacity:1"
       id="g5286-7"
       transform="matrix(-1,0,0,1,208.64091,-1.9999972)">
      <path
         style="fill:none;fill-rule:evenodd;stroke:#000000;stroke-width:1px;stroke-linecap:butt;stroke-linejoin:miter;stroke-opacity:1"
         d="m 128.76316,92.105461 14.29259,14.292589"
         id="path5280-2"
         inkscape:connector-curvature="0" />
      <path
         style="fill:none;fill-rule:evenodd;stroke:#000000;stroke-width:1px;stroke-linecap:butt;stroke-linejoin:miter;stroke-opacity:1"
         d="m 128.76316,81.122739 25.27531,25.275311"
         id="path5282-1"
         inkscape:connector-curvature="0" />
    </g>
    <g
       transform="translate(0,-2)"
       style="stroke:#000000;stroke-opacity:1"
       id="g5319">
      <path
         style="fill:none;fill-rule:evenodd;stroke:#000000;stroke-width:1px;stroke-linecap:butt;stroke-linejoin:miter;stroke-opacity:1"
         d="M 40.769421,78.489895 57.152519,62.106797"
         id="path5313"
         inkscape:connector-curvature="0" />
      <path
         style="fill:none;fill-rule:evenodd;stroke:#000000;stroke-width:1px;stroke-linecap:butt;stroke-linejoin:miter;stroke-opacity:1"
         d="M 40.769421,89.397393 68.060017,62.106797"
         id="path5315"
         inkscape:connector-curvature="0" />
    </g>
    <path
       inkscape:connector-curvature="0"
       id="path5313-9"
       d="M 167.87146,76.4899 151.48836,60.106802"
       style="fill:none;fill-rule:evenodd;stroke:#000000;stroke-width:1px;stroke-linecap:butt;stroke-linejoin:miter;stroke-opacity:1" />
    <path
       inkscape:connector-curvature="0"
       id="path5315-8"
       d="M 167.87146,87.397398 140.58086,60.106802"
       style="fill:none;fill-rule:evenodd;stroke:#000000;stroke-width:1px;stroke-linecap:butt;stroke-linejoin:miter;stroke-opacity:1" />
    <path
       sodipodi:nodetypes="ccccc"
       inkscape:connector-curvature="0"
       id="path5311-4"
       d="m 25.885957,52.192498 v 7.914295 H 182.75492 v -7.914295 z"
       style="fill:#feeb00;fill-opacity:1;fill-rule:evenodd;stroke:#000000;stroke-width:1px;stroke-linecap:butt;stroke-linejoin:miter;stroke-opacity:1" />
    <path
       inkscape:connector-curvature="0"
       id="path5801"
       d="M 30.99234,147.87275 H 50.546502"
       style="fill:none;fill-rule:evenodd;stroke:#000000;stroke-width:1px;stroke-linecap:butt;stroke-linejoin:miter;stroke-opacity:1" />
    <path
       inkscape:connector-curvature="0"
       id="path5801-7"
       d="m 158.09438,147.87275 h 19.55416"
       style="fill:none;fill-rule:evenodd;stroke:#000000;stroke-width:1px;stroke-linecap:butt;stroke-linejoin:miter;stroke-opacity:1" />
    <path
       inkscape:connector-curvature="0"
       id="path6419"
       d="m 30.99234,52.192502 v 52.205548 h 9.777081 V 52.192502 Z"
       style="fill:#feeb00;fill-opacity:1;fill-rule:evenodd;stroke:#000000;stroke-width:1px;stroke-linecap:butt;stroke-linejoin:miter;stroke-opacity:1" />
    <path
       inkscape:connector-curvature="0"
       id="path6419-2"
       d="m 167.87146,52.192498 v 52.205552 h 9.77708 V 52.192498 Z"
       style="fill:#feeb00;fill-opacity:1;fill-rule:evenodd;stroke:#000000;stroke-width:1px;stroke-linecap:butt;stroke-linejoin:miter;stroke-opacity:1" />
    <path
       inkscape:connector-curvature="0"
       id="path6419-5"
       d="m 79.877743,52.192498 v 52.205552 h 9.777081 V 52.192498 Z"
       style="fill:#feeb00;fill-opacity:1;fill-rule:evenodd;stroke:#000000;stroke-width:1px;stroke-linecap:butt;stroke-linejoin:miter;stroke-opacity:1" />
    <path
       inkscape:connector-curvature="0"
       id="path6419-50"
       d="m 118.98608,52.192498 v 52.205552 h 9.77708 V 52.192498 Z"
       style="fill:#feeb00;fill-opacity:1;fill-rule:evenodd;stroke:#000000;stroke-width:1px;stroke-linecap:butt;stroke-linejoin:miter;stroke-opacity:1" />
    <path
       inkscape:connector-curvature="0"
       id="path6448"
       d="M 40.769421,87.397393 68.060017,60.106797 H 57.152519 L 40.769421,76.489895 v 10.907498"
       style="fill:#feeb00;fill-opacity:1;fill-rule:evenodd;stroke:#000000;stroke-width:1px;stroke-linecap:butt;stroke-linejoin:miter;stroke-opacity:1" />
    <path
       inkscape:connector-curvature="0"
       id="path6448-3"
       d="m 167.81357,87.397394 -27.2906,-27.290596 h 10.9075 l 16.3831,16.383098 v 10.907498"
       style="fill:#feeb00;fill-opacity:1;fill-rule:evenodd;stroke:#000000;stroke-width:1px;stroke-linecap:butt;stroke-linejoin:miter;stroke-opacity:1" />
    <path
       inkscape:connector-curvature="0"
       id="path6469"
       d="M 89.654824,86.043359 H 118.98607 V 77.467808 H 89.654824 Z"
       style="fill:#feeb00;fill-opacity:1;fill-rule:evenodd;stroke:#000000;stroke-width:1px;stroke-linecap:butt;stroke-linejoin:miter;stroke-opacity:1" />
    <path
       inkscape:connector-curvature="0"
       id="path6471"
       d="m 128.76316,90.105461 14.29259,14.292589 h 10.98272 L 128.76316,79.122739 Z"
       style="fill:#feeb00;fill-opacity:1;fill-rule:evenodd;stroke:#000000;stroke-width:1px;stroke-linecap:butt;stroke-linejoin:miter;stroke-opacity:1" />
    <path
       inkscape:connector-curvature="0"
       id="path6471-4"
       d="M 79.859963,90.105457 65.567373,104.39805 H 54.584653 L 79.859963,79.122735 Z"
       style="fill:#feeb00;fill-opacity:1;fill-rule:evenodd;stroke:#000000;stroke-width:1px;stroke-linecap:butt;stroke-linejoin:miter;stroke-opacity:1" />
    <path
       inkscape:tile-y0="49.395222"
       inkscape:tile-x0="19.385957"
       inkscape:tile-h="5.297274"
       inkscape:tile-w="169.86896"
       inkscape:tile-cy="52.043859"
       inkscape:tile-cx="104.32044"
       inkscape:connector-curvature="0"
       id="path5311-4-8"
       d="m 19.885957,47.895222 v 4.297274 H 188.75492 v -4.297274 z"
       style="fill:#feeb00;fill-opacity:1;fill-rule:evenodd;stroke:#000000;stroke-width:1px;stroke-linecap:butt;stroke-linejoin:miter;stroke-opacity:1" />
    <use
       height="100%"
       width="100%"
       id="use6528"
       xlink:href="#path5311-4-8"
       inkscape:tiled-clone-of="#path5311-4-8"
       y="0"
       x="0" />
    <use
       height="100%"
       width="100%"
       id="use6530"
       xlink:href="#path5311-4-8"
       inkscape:tiled-clone-of="#path5311-4-8"
       y="0"
       x="0" />
    <use
       height="100%"
       width="100%"
       id="use6532"
       xlink:href="#path5311-4-8"
       inkscape:tiled-clone-of="#path5311-4-8"
       y="0"
       x="0" />
    <use
       height="100%"
       width="100%"
       id="use6534"
       xlink:href="#path5311-4-8"
       inkscape:tiled-clone-of="#path5311-4-8"
       y="0"
       x="0" />
    <use
       height="100%"
       width="100%"
       id="use6536"
       xlink:href="#path5311-4-8"
       inkscape:tiled-clone-of="#path5311-4-8"
       y="0"
       x="0" />
    <use
       height="100%"
       width="100%"
       id="use6538"
       xlink:href="#path5311-4-8"
       inkscape:tiled-clone-of="#path5311-4-8"
       y="0"
       x="0" />
    <use
       height="100%"
       width="100%"
       id="use6540"
       xlink:href="#path5311-4-8"
       inkscape:tiled-clone-of="#path5311-4-8"
       y="0"
       x="0" />
    <use
       height="100%"
       width="100%"
       inkscape:tile-y0="49.395222"
       inkscape:tile-x0="19.385957"
       inkscape:tile-h="5.297274"
       inkscape:tile-w="169.86896"
       inkscape:tile-cy="52.043859"
       inkscape:tile-cx="104.32044"
       id="use6542"
       xlink:href="#path5311-4-8"
       inkscape:tiled-clone-of="#path5311-4-8"
       y="0"
       x="0" />
    <use
       height="100%"
       width="100%"
       id="use6688"
       xlink:href="#use6542"
       inkscape:tiled-clone-of="#use6542"
       y="0"
       x="0" />
    <use
       height="100%"
       width="100%"
       id="use6690"
       transform="matrix(0.95,0,0,1,5.2160219,-4.297274)"
       xlink:href="#use6542"
       inkscape:tiled-clone-of="#use6542"
       y="0"
       x="0" />
    <use
       height="100%"
       width="100%"
       id="use6692"
       transform="matrix(0.9,0,0,1,10.432044,-8.594548)"
       xlink:href="#use6542"
       inkscape:tiled-clone-of="#use6542"
       y="0"
       x="0" />
    <use
       height="100%"
       width="100%"
       id="use6694"
       transform="matrix(0.85,0,0,1,15.648066,-12.891822)"
       xlink:href="#use6542"
       inkscape:tiled-clone-of="#use6542"
       y="0"
       x="0" />
    <use
       height="100%"
       width="100%"
       id="use6696"
       transform="matrix(0.8,0,0,1,20.864088,-17.189096)"
       xlink:href="#use6542"
       inkscape:tiled-clone-of="#use6542"
       y="0"
       x="0" />
    <use
       height="100%"
       width="100%"
       id="use6698"
       transform="matrix(0.75,0,0,1,26.08011,-21.48637)"
       xlink:href="#use6542"
       inkscape:tiled-clone-of="#use6542"
       y="0"
       x="0" />
    <use
       height="100%"
       width="100%"
       id="use6700"
       transform="matrix(0.7,0,0,1,31.296132,-25.783644)"
       xlink:href="#use6542"
       inkscape:tiled-clone-of="#use6542"
       y="0"
       x="0" />
    <use
       height="100%"
       width="100%"
       id="use6702"
       transform="matrix(0.65,0,0,1,36.512153,-30.080918)"
       xlink:href="#use6542"
       inkscape:tiled-clone-of="#use6542"
       y="0"
       x="0" />
  </g>
</svg>

<svg xmlns="http://www.w3.org/2000/svg" xmlns:xlink="http://www.w3.org/1999/xlink" version="1.0" width="208.86" height="244.66"><path style="fill:#000;fill-opacity:1;fill-rule:evenodd;stroke:#000;stroke-width:1.99999988;stroke-linecap:butt;stroke-miterlimit:4;stroke-dashoffset:0;stroke-opacity:1" d="m1 1 3.761 158.003c2.687 112.86 196.652 112.86 199.338 0L207.86 1z"/><g transform="translate(0 2)"><path d="M26.992 194.216H181.65c-5.876-5.876-4-85.004-4-85.004H30.992s1.75 79.253-4 85.004z" style="fill:#feeb00;fill-opacity:1;fill-rule:evenodd;stroke:#000;stroke-width:1px;stroke-linecap:butt;stroke-linejoin:miter;stroke-opacity:1"/><path d="M40.77 147.873v-95.68M50.547 194.216v-85.004M60.324 167.054v-57.842M70.1 157.775v-48.563M79.878 151.982v-99.79M89.655 148.766V52.193M99.432 147.17v-37.958M109.209 147.17v-37.958M118.986 148.766V52.193M138.54 157.775v-48.563M148.317 167.054v-57.842M158.094 194.216v-85.004M167.871 147.873v-95.68" style="fill:none;fill-rule:evenodd;stroke:#000;stroke-width:1px;stroke-linecap:butt;stroke-linejoin:miter;stroke-opacity:1"/><path d="M50.547 194.216a53.774 47.24 0 0 1 53.773-47.241 53.774 47.24 0 0 1 53.774 47.24" style="fill:#000;fill-opacity:1;stroke:#000;stroke-width:1;stroke-miterlimit:4;stroke-dasharray:none;stroke-opacity:1"/><path style="fill:none;fill-rule:evenodd;stroke:#000;stroke-width:1px;stroke-linecap:butt;stroke-linejoin:miter;stroke-opacity:1" d="M128.763 152.137V52.193"/><path d="M28.992 104.398v4.814H179.65v-4.814z" style="fill:#feeb00;fill-opacity:1;fill-rule:evenodd;stroke:#000;stroke-width:1px;stroke-linecap:butt;stroke-linejoin:miter;stroke-opacity:1"/><path d="M89.655 77.468h29.331M118.986 86.043H89.655" style="fill:none;fill-rule:evenodd;stroke:#000;stroke-width:1px;stroke-linecap:butt;stroke-linejoin:miter;stroke-opacity:1"/><g style="stroke:#000;stroke-opacity:1"><path style="fill:none;fill-rule:evenodd;stroke:#000;stroke-width:1px;stroke-linecap:butt;stroke-linejoin:miter;stroke-opacity:1" d="m128.763 92.105 14.293 14.293M128.763 81.123l25.275 25.275" transform="translate(0 -2)"/></g><g style="stroke:#000;stroke-opacity:1"><path style="fill:none;fill-rule:evenodd;stroke:#000;stroke-width:1px;stroke-linecap:butt;stroke-linejoin:miter;stroke-opacity:1" d="m128.763 92.105 14.293 14.293M128.763 81.123l25.275 25.275" transform="matrix(-1 0 0 1 208.64 -2)"/></g><g style="stroke:#000;stroke-opacity:1"><path style="fill:none;fill-rule:evenodd;stroke:#000;stroke-width:1px;stroke-linecap:butt;stroke-linejoin:miter;stroke-opacity:1" d="m40.77 78.49 16.383-16.383M40.77 89.397l27.29-27.29" transform="translate(0 -2)"/></g><path d="m167.871 76.49-16.383-16.383M167.871 87.397l-27.29-27.29" style="fill:none;fill-rule:evenodd;stroke:#000;stroke-width:1px;stroke-linecap:butt;stroke-linejoin:miter;stroke-opacity:1"/><path d="M25.886 52.192v7.915h156.869v-7.915z" style="fill:#feeb00;fill-opacity:1;fill-rule:evenodd;stroke:#000;stroke-width:1px;stroke-linecap:butt;stroke-linejoin:miter;stroke-opacity:1"/><path d="M30.992 147.873h19.555M158.094 147.873h19.555" style="fill:none;fill-rule:evenodd;stroke:#000;stroke-width:1px;stroke-linecap:butt;stroke-linejoin:miter;stroke-opacity:1"/><path d="M30.992 52.193v52.205h9.777V52.193zM167.871 52.192v52.206h9.778V52.192zM79.878 52.192v52.206h9.777V52.192zM118.986 52.192v52.206h9.777V52.192zM40.77 87.397l27.29-27.29H57.153L40.769 76.49v10.907M167.814 87.397l-27.291-27.29h10.907l16.384 16.383v10.907M89.655 86.043h29.331v-8.575H89.655z" style="fill:#feeb00;fill-opacity:1;fill-rule:evenodd;stroke:#000;stroke-width:1px;stroke-linecap:butt;stroke-linejoin:miter;stroke-opacity:1"/><path d="m128.763 90.105 14.293 14.293h10.982l-25.275-25.275zM79.86 90.105l-14.293 14.293H54.585L79.86 79.123z" style="fill:#feeb00;fill-opacity:1;fill-rule:evenodd;stroke:#000;stroke-width:1px;stroke-linecap:butt;stroke-linejoin:miter;stroke-opacity:1"/><path id="a" d="M19.886 47.895v4.297h168.869v-4.297z" style="fill:#feeb00;fill-opacity:1;fill-rule:evenodd;stroke:#000;stroke-width:1px;stroke-linecap:butt;stroke-linejoin:miter;stroke-opacity:1"/><use height="100%" width="100%" xlink:href="#a"/><use height="100%" width="100%" xlink:href="#a"/><use height="100%" width="100%" xlink:href="#a"/><use height="100%" width="100%" xlink:href="#a"/><use height="100%" width="100%" xlink:href="#a"/><use height="100%" width="100%" xlink:href="#a"/><use height="100%" width="100%" xlink:href="#a"/><use height="100%" width="100%" id="b" xlink:href="#a" y="0" x="0"/><use height="100%" width="100%" xlink:href="#b"/><use height="100%" width="100%" transform="matrix(.95 0 0 1 5.216 -4.297)" xlink:href="#b"/><use height="100%" width="100%" transform="matrix(.9 0 0 1 10.432 -8.595)" xlink:href="#b"/><use height="100%" width="100%" transform="matrix(.85 0 0 1 15.648 -12.892)" xlink:href="#b"/><use height="100%" width="100%" transform="matrix(.8 0 0 1 20.864 -17.19)" xlink:href="#b"/><use height="100%" width="100%" transform="matrix(.75 0 0 1 26.08 -21.486)" xlink:href="#b"/><use height="100%" width="100%" transform="matrix(.7 0 0 1 31.296 -25.784)" xlink:href="#b"/><use height="100%" width="100%" transform="matrix(.65 0 0 1 36.512 -30.08)" xlink:href="#b"/></g></svg>
